Origami/22x22/apps/desktop-environment-gnome.svg

<svg width="22" height="22" version="1" xmlns="http://www.w3.org/2000/svg">
 <path d="m15.764142 1.5000893c-1.13656 0-2.150199 0.4684112-2.904864 1.0986276-0.08619-0.0693744-0.144103-0.1560417-0.242884-0.2158192-0.568739-0.3441724-1.266525-0.4312481-1.826026-0.3525374-0.782191 0.1100789-1.420004 0.6065539-1.8982076 1.1611273-0.3487494-0.1272818-0.7120997-0.2135783-1.0788375-0.1777335-0.2875261 0.0280949-0.5525399 0.0970897-0.7930337 0.1884756-0.8836574 0.3357995-1.6231249 1.185576-1.8738217 2.0224516-0.2322094 0.0712802-0.4999412 0.0703577-0.6935383 0.1845691-0.796471 0.4701528-1.4259142 1.50372-1.4514564 2.3954968-0.0255419 0.8917768 0.3024443 1.5349768 0.6584226 2.0419828 0.2291783 0.326409 0.549865 0.541214 0.8466831 0.783199-0.1582723 0.347212-0.3078476 0.702337-0.3921272 1.097651-0.4683716 2.197016 0.422413 4.255977 1.7479898 5.865207 1.3257763 1.609472 3.2503099 2.907213 5.5765949 2.907213 2.516093 0 4.643358-1.684743 5.377648-4.139603 0.289886-0.758517 0.11813-1.634438-0.01139-2.359134-0.354421-1.968937-0.915092-3.923289 1.514505-7.2805187 0.439015-0.7915723 0.877215-1.6719907 0.586239-2.9589706-0.145489-0.643466-0.610814-1.3624488-1.233934-1.7577805-0.62312-0.3953318-1.285226-0.5039039-1.907962-0.5039039z" style="opacity:.2"/>
 <path d="m15.764142 1.0000917c-1.13656 0-2.150199 0.4684111-2.904864 1.0986276-0.08619-0.0693744-0.144103-0.1560417-0.242884-0.2158193-0.568739-0.3441723-1.266525-0.431248-1.826026-0.3525374-0.782191 0.1100789-1.420004 0.606554-1.8982076 1.1611274-0.3487494-0.1272818-0.7120997-0.2135783-1.0788375-0.1777336-0.2875261 0.0280949-0.5525399 0.0970898-0.7930337 0.1884757-0.8836574 0.3357993-1.6231249 1.185576-1.8738217 2.0224515-0.2322094 0.0712802-0.4999412 0.0703577-0.6935383 0.1845692-0.796471 0.4701528-1.4259142 1.5037199-1.4514564 2.3954967-0.025542 0.8917768 0.3024443 1.5349773 0.6584226 2.0419825 0.2291783 0.326409 0.549865 0.541214 0.8466831 0.7832-0.1582723 0.347212-0.3078476 0.702336-0.3921272 1.097651-0.4683716 2.197015 0.422413 4.255977 1.7479898 5.865207 1.3257763 1.609471 3.2503099 2.907212 5.5765949 2.907212 2.516093 0 4.643358-1.684743 5.377648-4.139603 0.289886-0.758517 0.11813-1.634438-0.01139-2.359134-0.354421-1.968937-0.915092-3.923288 1.514505-7.2805184 0.439015-0.7915723 0.877215-1.6719906 0.586239-2.9589703-0.145489-0.6434663-0.610814-1.362449-1.233934-1.7577808-0.62312-0.3953317-1.285226-0.5039038-1.907962-0.5039038z" style="fill:#569c3b"/>
 <path d="m15.77858 3.5000799c-2.96175 0-3.516769 4.4999789-1.85062 4.4999789 1.665909 0 4.81249-4.4999789 1.85062-4.4999789zm-4.701258 0.5107396c-1.694046 0.2381329-1.098315 3.4286329-0.196292 3.4882651 0.901655 0.059633 1.890951-3.7263975 0.196292-3.4882651zm-3.0645085 0.9931593c-0.0865256 0.008445-0.1792252 0.0307449-0.2783252 0.0683592-1.585892 0.6019667-0.2409564 3.086917 0.6474725 2.9199083 0.8335722-0.1563253 0.9287422-3.1149774-0.3691473-2.9882675zm-2.0849987 1.9960847c-0.1415958-0.00405-0.2949831 0.0357648-0.4580163 0.1318353-1.3036764 0.7686734 0.4390619 2.6258672 1.2060763 2.3378792 0.6711388-0.252097 0.2431113-2.4412497-0.74806-2.4697145zm6.0811652 1.5009694c-2.333948-0.0413083-5.4125553 1.1835951-5.9376079 3.6435371-0.5686513 2.662083 2.3413095 6.355439 5.3770499 6.355439 1.493428 0 3.215878-1.41106 3.538151-3.198227 0.246134-1.362813-3.096378-0.816805-2.983453 0.08496 0.09221 0.736709-0.293318 1.119837-0.82521 1.13183-0.726189-0.088-1.082219-0.507211-1.177756-1.140619-0.130052-1.663272 5.108334-2.848656 4.693445-5.427709-0.151746-0.943285-1.284251-1.4244257-2.684619-1.4492111z" style="opacity:.2"/>
 <path d="m15.77858 3.0000822c-2.96175 0-3.516769 4.4999789-1.85062 4.4999789 1.665909 0 4.81249-4.4999789 1.85062-4.4999789zm-4.701258 0.5107396c-1.694046 0.2381329-1.098315 3.4286329-0.196292 3.4882652 0.901655 0.0596332 1.890951-3.7263974 0.196292-3.4882652zm-3.0645085 0.9931594c-0.0865256 0.0084449-0.1792252 0.0307448-0.2783252 0.0683592-1.585892 0.6019666-0.2409564 3.086917 0.6474725 2.9199082 0.8335722-0.1563252 0.9287422-3.1149773-0.3691473-2.9882674zm-2.0849987 1.9960846c-0.1415958-0.00405-0.2949831 0.0357648-0.4580163 0.1318354-1.3036764 0.7686734 0.4390619 2.6258668 1.2060763 2.3378795 0.6711388-0.2520978 0.2431113-2.44125-0.74806-2.4697149zm6.0811652 1.5009694c-2.333948-0.0413083-5.4125553 1.1835948-5.9376079 3.6435378-0.5686513 2.662083 2.3413095 6.355439 5.3770499 6.355439 1.493428 0 3.215878-1.411061 3.538151-3.198227 0.246134-1.362814-3.096378-0.816805-2.983453 0.08496 0.09221 0.736709-0.293318 1.119838-0.82521 1.131831-0.726189-0.088-1.082219-0.507212-1.177756-1.14062-0.130052-1.663271 5.108334-2.848655 4.693445-5.427709-0.151746-0.9432861-1.284251-1.4244264-2.684619-1.4492118z" style="fill:#ffffff"/>
 <path d="m15.763685 1.0000917c-1.13656 0-2.149618 0.4684111-2.904283 1.0986276-0.08619-0.0693744-0.144382-0.1560417-0.243163-0.2158193-0.568739-0.3441723-1.266663-0.431248-1.826164-0.3525374-0.782191 0.1100789-1.419248 0.606554-1.8974516 1.1611274-0.3487494-0.1272818-0.7123587-0.2135783-1.0790965-0.1777336-0.2875261 0.0280949-0.5524709 0.0970898-0.7929647 0.1884757-0.8836574 0.3357993-1.6233179 1.185576-1.8740147 2.0224515-0.2322094 0.0712802-0.4997592 0.0703577-0.6933563 0.1845692-0.796471 0.4701528-1.4265994 1.5037199-1.4521416 2.3954967-0.003775 0.1317589 0.00306 0.2566593 0.0136719 0.3779277 0.0753631-0.8625299 0.6777708-1.8243899 1.4384697-2.2734268 0.1935971-0.1142114 0.4611469-0.1132889 0.6933563-0.1845691 0.2506968-0.8368756 0.9903573-1.6866521 1.8740147-2.0224516 0.2404938-0.0913859 0.5054386-0.1603808 0.7929647-0.1884756 0.3667378-0.0358448 0.7303471 0.0504517 1.0790965 0.1777335 0.4782036-0.5545734 1.1152606-1.0510484 1.8974516-1.1611273 0.559501-0.078711 1.257425 0.00836 1.826164 0.3525374 0.09878 0.059778 0.156973 0.1464448 0.243163 0.2158192 0.754665-0.6302164 1.767723-1.0986276 2.904283-1.0986276 0.622737 0 1.285074 0.1085721 1.908194 0.5039039 0.623121 0.3953317 1.08888 1.1143382 1.234369 1.7578045 0.04331 0.1915806 0.0657 0.3712847 0.0791 0.5458954 0.0234-0.319439 0.0075-0.6627794-0.0791-1.0458933-0.145489-0.6434663-0.611248-1.3624725-1.234369-1.7578043-0.62312-0.3953317-1.285457-0.5039038-1.908194-0.5039038zm-11.414985 9.5028843c-0.094182 0.231439-0.1796991 0.468153-0.2343739 0.724607-0.1041785 0.488675-0.1373217 0.969814-0.1171871 1.441399 0.013731-0.31059 0.049546-0.624115 0.1171871-0.941402 0.08428-0.395314 0.2343039-0.750439 0.3925762-1.097651-0.052273-0.04261-0.1050785-0.08526-0.1582023-0.126953zm12.143497 0.762692c-0.04056 0.991235 0.156277 1.862046 0.313475 2.735339 0.06291 0.351998 0.133104 0.740237 0.158202 1.132807 0.03697-0.557425-0.06855-1.1312-0.158202-1.632805-0.130214-0.723386-0.286103-1.445596-0.313475-2.235341z" style="fill:#ffffff;opacity:.2"/>
</svg>

<svg xmlns="http://www.w3.org/2000/svg" width="22" height="22" version="1">
 <path d="m 15.764142,1.5000893 c -1.13656,0 -2.150199,0.4684112 -2.904864,1.0986276 C 12.773088,2.5293425 12.715175,2.4426752 12.616394,2.3828977 12.047655,2.0387253 11.349869,1.9516496 10.790368,2.0303603 10.008177,2.1404392 9.370364,2.6369142 8.8921604,3.1914876 8.543411,3.0642058 8.1800607,2.9779093 7.8133229,3.0137541 7.5257968,3.041849 7.260783,3.1108438 7.0202892,3.2022297 6.1366318,3.5380292 5.3971643,4.3878057 5.1464675,5.2246813 4.9142581,5.2959615 4.6465263,5.295039 4.4529292,5.4092504 3.6564582,5.8794032 3.027015,6.9129704 3.0014728,7.8047472 2.9759309,8.696524 3.3039171,9.339724 3.6598954,9.84673 c 0.2291783,0.326409 0.549865,0.541214 0.8466831,0.783199 -0.1582723,0.347212 -0.3078476,0.702337 -0.3921272,1.097651 -0.4683716,2.197016 0.422413,4.255977 1.7479898,5.865207 C 7.1882174,19.202259 9.112751,20.5 11.439036,20.5 c 2.516093,0 4.643358,-1.684743 5.377648,-4.139603 0.289886,-0.758517 0.11813,-1.634438 -0.01139,-2.359134 C 16.450873,12.032326 15.890202,10.077974 18.319799,6.7207443 18.758814,5.929172 19.197014,5.0487536 18.906038,3.7617737 18.760549,3.1183077 18.295224,2.3993249 17.672104,2.0039932 17.048984,1.6086614 16.386878,1.5000893 15.764142,1.5000893 Z" style="opacity:0.2"/>
 <path style="fill:#569c3b" d="m 15.764142,1.0000917 c -1.13656,0 -2.150199,0.4684111 -2.904864,1.0986276 C 12.773088,2.0293449 12.715175,1.9426776 12.616394,1.8829 12.047655,1.5387277 11.349869,1.451652 10.790368,1.5303626 10.008177,1.6404415 9.370364,2.1369166 8.8921604,2.69149 8.543411,2.5642082 8.1800607,2.4779117 7.8133229,2.5137564 7.5257968,2.5418513 7.260783,2.6108462 7.0202892,2.7022321 6.1366318,3.0380314 5.3971643,3.8878081 5.1464675,4.7246836 4.9142581,4.7959638 4.6465263,4.7950413 4.4529292,4.9092528 3.6564582,5.3794056 3.027015,6.4129727 3.0014728,7.3047495 2.9759308,8.1965263 3.3039171,8.8397268 3.6598954,9.346732 c 0.2291783,0.326409 0.549865,0.541214 0.8466831,0.7832 -0.1582723,0.347212 -0.3078476,0.702336 -0.3921272,1.097651 -0.4683716,2.197015 0.422413,4.255977 1.7479898,5.865207 1.3257763,1.609471 3.2503099,2.907212 5.5765949,2.907212 2.516093,0 4.643358,-1.684743 5.377648,-4.139603 0.289886,-0.758517 0.11813,-1.634438 -0.01139,-2.359134 C 16.450873,11.532328 15.890202,9.577977 18.319799,6.2207466 18.758814,5.4291743 19.197014,4.548756 18.906038,3.2617763 18.760549,2.61831 18.295224,1.8993273 17.672104,1.5039955 17.048984,1.1086638 16.386878,1.0000917 15.764142,1.0000917 Z"/>
 <path d="m 15.77858,3.5000799 c -2.96175,0 -3.516769,4.4999789 -1.85062,4.4999789 1.665909,0 4.81249,-4.4999789 1.85062,-4.4999789 z M 11.077322,4.0108195 C 9.383276,4.2489524 9.979007,7.4394524 10.88103,7.4990846 11.782685,7.5587176 12.771981,3.7726871 11.077322,4.0108195 Z M 8.0128135,5.0039788 C 7.9262879,5.0124238 7.8335883,5.0347237 7.7344883,5.072338 6.1485963,5.6743047 7.4935319,8.159255 8.3819608,7.9922463 9.215533,7.835921 9.310703,4.8772689 8.0128135,5.0039788 Z M 5.9278148,7.0000635 C 5.786219,6.9960135 5.6328317,7.0358283 5.4697985,7.1318988 4.1661221,7.9005722 5.9088604,9.757766 6.6758748,9.469778 7.3470136,9.217681 6.9189861,7.0285283 5.9278148,7.0000635 Z M 12.00898,8.5010329 C 9.675032,8.4597246 6.5964247,9.684628 6.0713721,12.14457 c -0.5686513,2.662083 2.3413095,6.355439 5.3770499,6.355439 1.493428,0 3.215878,-1.41106 3.538151,-3.198227 0.246134,-1.362813 -3.096378,-0.816805 -2.983453,0.08496 0.09221,0.736709 -0.293318,1.119837 -0.82521,1.13183 -0.726189,-0.088 -1.082219,-0.507211 -1.177756,-1.140619 C 9.870102,13.714681 15.108488,12.529297 14.693599,9.950244 14.541853,9.006959 13.409348,8.5258183 12.00898,8.5010329 Z" style="opacity:0.2"/>
 <path style="fill:#ffffff" d="m 15.77858,3.0000822 c -2.96175,0 -3.516769,4.4999789 -1.85062,4.4999789 1.665909,0 4.81249,-4.4999789 1.85062,-4.4999789 z M 11.077322,3.5108218 C 9.383276,3.7489547 9.979007,6.9394547 10.88103,6.999087 11.782685,7.0587202 12.771981,3.2726896 11.077322,3.5108218 Z M 8.0128135,4.5039812 C 7.9262879,4.5124261 7.8335883,4.534726 7.7344883,4.5723404 6.1485963,5.174307 7.4935319,7.6592574 8.3819608,7.4922486 9.215533,7.3359234 9.310703,4.3772713 8.0128135,4.5039812 Z M 5.9278148,6.5000658 C 5.786219,6.4960158 5.6328317,6.5358306 5.4697985,6.6319012 4.1661221,7.4005746 5.9088604,9.257768 6.6758748,8.9697807 7.3470136,8.7176829 6.9189861,6.5285307 5.9278148,6.5000658 Z M 12.00898,8.0010352 C 9.675032,7.9597269 6.5964247,9.18463 6.0713721,11.644573 c -0.5686513,2.662083 2.3413095,6.355439 5.3770499,6.355439 1.493428,0 3.215878,-1.411061 3.538151,-3.198227 0.246134,-1.362814 -3.096378,-0.816805 -2.983453,0.08496 0.09221,0.736709 -0.293318,1.119838 -0.82521,1.131831 -0.726189,-0.088 -1.082219,-0.507212 -1.177756,-1.14062 C 9.870102,13.214685 15.108488,12.029301 14.693599,9.450247 14.541853,8.5069609 13.409348,8.0258206 12.00898,8.0010352 Z"/>
 <path style="opacity:0.2;fill:#ffffff" d="m 15.763685,1.0000917 c -1.13656,0 -2.149618,0.4684111 -2.904283,1.0986276 C 12.773212,2.0293449 12.71502,1.9426776 12.616239,1.8829 12.0475,1.5387277 11.349576,1.451652 10.790075,1.5303626 10.007884,1.6404415 9.370827,2.1369166 8.8926234,2.69149 8.543874,2.5642082 8.1802647,2.4779117 7.8135269,2.5137564 7.5260008,2.5418513 7.261056,2.6108462 7.0205622,2.7022321 6.1369048,3.0380314 5.3972443,3.8878081 5.1465475,4.7246836 4.9143381,4.7959638 4.6467883,4.7950413 4.4531912,4.9092528 3.6567202,5.3794056 3.0265918,6.4129727 3.0010496,7.3047495 2.9972746,7.4365084 3.0041096,7.5614088 3.0147215,7.6826772 3.0900846,6.8201473 3.6924923,5.8582873 4.4531912,5.4092504 4.6467883,5.295039 4.9143381,5.2959615 5.1465475,5.2246813 5.3972443,4.3878057 6.1369048,3.5380292 7.0205622,3.2022297 7.261056,3.1108438 7.5260008,3.0418489 7.8135269,3.0137541 8.1802647,2.9779093 8.543874,3.0642058 8.8926234,3.1914876 9.370827,2.6369142 10.007884,2.1404392 10.790075,2.0303603 c 0.559501,-0.078711 1.257425,0.00836 1.826164,0.3525374 0.09878,0.059778 0.156973,0.1464448 0.243163,0.2158192 0.754665,-0.6302164 1.767723,-1.0986276 2.904283,-1.0986276 0.622737,0 1.285074,0.1085721 1.908194,0.5039039 0.623121,0.3953317 1.08888,1.1143382 1.234369,1.7578045 0.04331,0.1915806 0.0657,0.3712847 0.0791,0.5458954 0.0234,-0.319439 0.0075,-0.6627794 -0.0791,-1.0458933 C 18.760759,2.6183335 18.295,1.8993273 17.671879,1.5039955 17.048759,1.1086638 16.386422,1.0000917 15.763685,1.0000917 Z M 4.3486997,10.502976 c -0.094182,0.231439 -0.1796991,0.468153 -0.2343739,0.724607 -0.1041785,0.488675 -0.1373217,0.969814 -0.1171871,1.441399 0.013731,-0.31059 0.049546,-0.624115 0.1171871,-0.941402 0.08428,-0.395314 0.2343039,-0.750439 0.3925762,-1.097651 -0.052273,-0.04261 -0.1050785,-0.08526 -0.1582023,-0.126953 z m 12.1434973,0.762692 c -0.04056,0.991235 0.156277,1.862046 0.313475,2.735339 0.06291,0.351998 0.133104,0.740237 0.158202,1.132807 0.03697,-0.557425 -0.06855,-1.1312 -0.158202,-1.632805 -0.130214,-0.723386 -0.286103,-1.445596 -0.313475,-2.235341 z"/>
</svg>
